imgsrc/document-new.svg

<?xml version="1.0" encoding="UTF-8" standalone="no"?>
<!-- Created with Inkscape (http://www.inkscape.org/) -->

<svg
   xmlns:dc="http://purl.org/dc/elements/1.1/"
   xmlns:cc="http://creativecommons.org/ns#"
   xmlns:rdf="http://www.w3.org/1999/02/22-rdf-syntax-ns#"
   xmlns:svg="http://www.w3.org/2000/svg"
   xmlns="http://www.w3.org/2000/svg"
   xmlns:sodipodi="http://sodipodi.sourceforge.net/DTD/sodipodi-0.dtd"
   xmlns:inkscape="http://www.inkscape.org/namespaces/inkscape"
   width="128"
   height="128"
   viewBox="0 0 128 128"
   id="svg2"
   version="1.1"
   inkscape:version="0.92.2 5c3e80d, 2017-08-06"
   sodipodi:docname="document-new.svg">
  <defs
     id="defs4">
    <linearGradient
       id="linearGradient4561"
       x1="24"
       x2="44"
       y1="24"
       y2="24"
       gradientTransform="matrix(2.6,0,0,2.66668,1.6,922.36212)"
       gradientUnits="userSpaceOnUse">
      <stop
         offset="0"
         id="stop2" />
      <stop
         offset="1"
         stop-opacity="0"
         id="stop4" />
    </linearGradient>
  </defs>
  <sodipodi:namedview
     id="base"
     pagecolor="#ffffff"
     bordercolor="#666666"
     borderopacity="1.0"
     inkscape:pageopacity="0.0"
     inkscape:pageshadow="2"
     inkscape:zoom="2.52183"
     inkscape:cx="-1.3442832"
     inkscape:cy="85.22353"
     inkscape:document-units="px"
     inkscape:current-layer="layer1"
     showgrid="true"
     units="px"
     showguides="true"
     inkscape:guide-bbox="true"
     inkscape:window-width="1366"
     inkscape:window-height="694"
     inkscape:window-x="0"
     inkscape:window-y="48"
     inkscape:window-maximized="1">
    <inkscape:grid
       type="xygrid"
       id="grid4136"
       empspacing="4" />
    <sodipodi:guide
       position="8,140"
       orientation="1,0"
       id="guide4138"
       inkscape:label="Margin Left"
       inkscape:color="rgb(0,0,255)"
       inkscape:locked="false" />
    <sodipodi:guide
       position="120,140"
       orientation="1,0"
       id="guide4140"
       inkscape:label="Margin Right"
       inkscape:color="rgb(0,0,255)"
       inkscape:locked="false" />
    <sodipodi:guide
       position="-20,120"
       orientation="0,1"
       id="guide4142"
       inkscape:label="Margin Top"
       inkscape:color="rgb(0,0,255)"
       inkscape:locked="false" />
    <sodipodi:guide
       position="-16,8"
       orientation="0,1"
       id="guide4144"
       inkscape:label="Margin Bottom"
       inkscape:color="rgb(0,0,255)"
       inkscape:locked="false" />
    <sodipodi:guide
       position="8,8"
       orientation="-0.70710678,0.70710678"
       id="guide4146"
       inkscape:locked="false" />
    <sodipodi:guide
       position="72,56"
       orientation="0.70710678,0.70710678"
       id="guide4148"
       inkscape:locked="false" />
    <sodipodi:guide
       position="20,140"
       orientation="1,0"
       id="guide4150"
       inkscape:label="Rectangle Left"
       inkscape:color="rgb(0,0,255)"
       inkscape:locked="false" />
    <sodipodi:guide
       position="108,140"
       orientation="1,0"
       id="guide4152"
       inkscape:label="Rectangle Right"
       inkscape:color="rgb(0,0,255)"
       inkscape:locked="false" />
    <sodipodi:guide
       position="-20,116"
       orientation="0,1"
       id="guide4154"
       inkscape:label="Shadow Top"
       inkscape:color="rgb(0,0,255)"
       inkscape:locked="false" />
    <sodipodi:guide
       position="-16,12"
       orientation="0,1"
       id="guide4156"
       inkscape:label="Shadow Bottom"
       inkscape:color="rgb(0,0,255)"
       inkscape:locked="false" />
    <sodipodi:guide
       position="-20,104"
       orientation="0,1"
       id="guide4158"
       inkscape:label="Rectangle Top"
       inkscape:color="rgb(0,0,255)"
       inkscape:locked="false" />
    <sodipodi:guide
       position="-16,24"
       orientation="0,1"
       id="guide4160"
       inkscape:label="Rectangle Bottom"
       inkscape:color="rgb(0,0,255)"
       inkscape:locked="false" />
  </sodipodi:namedview>
  <metadata
     id="metadata7">
    <rdf:RDF>
      <cc:Work
         rdf:about="">
        <dc:format>image/svg+xml</dc:format>
        <dc:type
           rdf:resource="http://purl.org/dc/dcmitype/StillImage" />
        <dc:title />
      </cc:Work>
    </rdf:RDF>
  </metadata>
  <g
     inkscape:label="Layer 1"
     inkscape:groupmode="layer"
     id="layer1"
     transform="translate(0,-924.36216)">
    <g
       id="g40"
       transform="matrix(4,0,0,4,0,922.36216)">
      <path
         id="path2-3"
         d="M 27,28.5 V 3.5 C 27,2.669 26.331,2 25.5,2 H 6.5 C 5.669,2 5,2.669 5,3.5 v 25 C 5,29.331 5.669,30 6.5,30 h 19 c 0.831,0 1.5,-0.669 1.5,-1.5 z"
         inkscape:connector-curvature="0"
         style="fill:#cccccc" />
      <path
         id="path4-6"
         d="M 6.5,2 C 5.669,2 5,2.669 5,3.5 v 1 C 5,3.669 5.669,3 6.5,3 h 19 C 26.331,3 27,3.669 27,4.5 v -1 C 27,2.669 26.331,2 25.5,2 Z"
         inkscape:connector-curvature="0"
         style="opacity:0.1;fill:#ffffff" />
      <g
         id="g18"
         style="fill:#4c4c4c">
        <path
           id="path6-7"
           d="M 9,8 H 23 V 9 H 9 Z"
           inkscape:connector-curvature="0" />
        <path
           id="path8"
           d="m 9,11 h 14 v 1 H 9 Z"
           inkscape:connector-curvature="0" />
        <path
           id="path10-5"
           d="m 9,14 h 14 v 1 H 9 Z"
           inkscape:connector-curvature="0" />
        <path
           id="path12-3"
           d="m 9,17 h 14 v 1 H 9 Z"
           inkscape:connector-curvature="0" />
        <path
           id="path14"
           d="m 9,20 h 14 v 1 H 9 Z"
           inkscape:connector-curvature="0" />
        <path
           id="path16"
           d="m 9,23 h 14 v 1 H 9 Z"
           inkscape:connector-curvature="0" />
      </g>
      <path
         id="path20"
         d="m 5,28.5 v 1 C 5,30.331 5.669,31 6.5,31 h 19 c 0.831,0 1.5,-0.669 1.5,-1.5 v -1 C 27,29.331 26.331,30 25.5,30 H 6.5 C 5.669,30 5,29.331 5,28.5 Z"
         inkscape:connector-curvature="0"
         style="opacity:0.2" />
    </g>
    <g
       id="g851"
       transform="matrix(0.57141245,0,0,0.57141245,97.34644,446.17309)">
      <g
         transform="translate(3.5000987,3.5000987)"
         id="g895">
        <rect
           style="fill:#771b85;fill-opacity:1;stroke-width:4"
           id="rect2"
           transform="matrix(0,-1,-1,0,0,0)"
           ry="56"
           rx="56"
           y="-50.141983"
           x="-1053.3607"
           height="112"
           width="112" />
        <path
           style="opacity:0.1;fill:#ffffff;stroke-width:4"
           inkscape:connector-curvature="0"
           id="path12-5"
           d="m -5.8580194,941.36063 c -31.0239996,0 -55.9999996,24.976 -55.9999996,56 0,0.67536 0.07808,1.33056 0.10156,2 1.0564,-30.0824 25.5512,-54 55.8999996,-54 30.3488004,0 54.8440004,23.9176 55.9000004,54 0.024,-0.66944 0.1016,-1.32464 0.1016,-2 0,-31.024 -24.976,-56 -56.0000004,-56 z" />
        <path
           style="opacity:0.2;stroke-width:4"
           inkscape:connector-curvature="0"
           id="path14-3"
           d="m -61.756419,999.36063 c -0.0236,0.66797 -0.1016,1.32397 -0.1016,1.99997 0,31.0241 24.976,56.0001 55.9999996,56.0001 31.0240004,0 56.0000004,-24.976 56.0000004,-56.0001 0,-0.6753 -0.0781,-1.3305 -0.10156,-1.99997 -1.056,30.08407 -25.552,54.00007 -55.9000004,54.00007 -30.3487996,0 -54.8439996,-23.916 -55.8999996,-54.00007 z" />
      </g>
      <path
         inkscape:connector-curvature="0"
         id="path38"
         d="m -9.3565356,974.86 v 28.0008 H -37.357325 v 14.0004 h 28.0007894 v 28.0007 H 4.6438647 v -28.0008 H 32.644645 v -14.0003 H 4.6438647 V 974.86 Z"
         style="opacity:0.2;stroke-width:7.00019741" />
      <path
         style="fill:#ffffff;stroke-width:7.00019741"
         d="m -9.3565356,967.8598 v 28.00079 H -37.357325 v 14.00041 h 28.0007894 v 28.0007 H 4.6438647 v -28.0008 H 32.644645 V 995.86059 H 4.6438647 V 967.8598 Z"
         id="path18-6"
         inkscape:connector-curvature="0" />
    </g>
  </g>
</svg>

<svg xmlns="http://www.w3.org/2000/svg" width="32" height="32" version="1">
 <path fill="#ccc" d="m27 28.5v-25c0-0.831-0.669-1.5-1.5-1.5h-19c-0.831 0-1.5 0.669-1.5 1.5v25c0 0.831 0.669 1.5 1.5 1.5h19c0.831 0 1.5-0.669 1.5-1.5z"/>
 <path fill="#fff" opacity=".1" d="m6.5 2c-0.831 0-1.5 0.669-1.5 1.5v1c0-0.831 0.669-1.5 1.5-1.5h19c0.831 0 1.5 0.669 1.5 1.5v-1c0-0.831-0.669-1.5-1.5-1.5z"/>
 <g fill="#4c4c4c">
  <path d="m9 8h14v1h-14z"/>
  <path d="m9 11h14v1h-14z"/>
  <path d="m9 14h14v1h-14z"/>
  <path d="m9 17h14v1h-14z"/>
  <path d="m9 20h14v1h-14z"/>
  <path d="m9 23h14v1h-14z"/>
 </g>
 <path opacity=".2" d="m5 28.5v1c0 0.831 0.669 1.5 1.5 1.5h19c0.831 0 1.5-0.669 1.5-1.5v-1c0 0.831-0.669 1.5-1.5 1.5h-19c-0.831 0-1.5-0.669-1.5-1.5z"/>
 <circle style="fill-rule:evenodd;opacity:0.2" cx="24" cy="24" r="8"/>
 <circle style="fill:#4caf50;fill-rule:evenodd" cx="24" cy="23" r="8"/>
 <g>
  <rect style="fill:#ffffff" width="2" height="10" x="23" y="18"/>
  <rect style="fill:#ffffff" width="10" height="2" x="19" y="22"/>
 </g>
</svg>
